public/img/icon/general/ig.svg

<svg width="51" height="51" viewBox="0 0 51 51" fill="none" xmlns="http://www.w3.org/2000/svg">
<path d="M25.83 13.2931C29.8204 13.2931 30.2791 13.316 31.8615 13.3848C33.3063 13.4536 34.1089 13.6829 34.6364 13.8893C35.3244 14.1645 35.8289 14.4856 36.3564 15.0131C36.8838 15.5405 37.2049 16.0221 37.4801 16.7331C37.6865 17.2605 37.9388 18.0403 37.9846 19.508C38.0534 21.0904 38.0764 21.5491 38.0764 25.5394C38.0764 29.5298 38.0534 29.9885 37.9846 31.5709C37.9158 33.0157 37.6865 33.8184 37.4801 34.3458C37.2049 35.0338 36.8838 35.5384 36.3564 36.0658C35.8289 36.5933 35.3473 36.9144 34.6364 37.1896C34.1089 37.396 33.3292 37.6482 31.8615 37.6941C30.2791 37.7629 29.8204 37.7858 25.83 37.7858C21.8396 37.7858 21.3809 37.7629 19.7985 37.6941C18.3537 37.6253 17.5511 37.396 17.0236 37.1896C16.3356 36.9144 15.8311 36.5933 15.3036 36.0658C14.7761 35.5384 14.4551 35.0568 14.1799 34.3458C13.9735 33.8184 13.7212 33.0386 13.6753 31.5709C13.6065 29.9885 13.5836 29.5298 13.5836 25.5394C13.5836 21.5491 13.6065 21.0904 13.6753 19.508C13.7441 18.0632 13.9735 17.2605 14.1799 16.7331C14.4551 16.0451 14.7761 15.5405 15.3036 15.0131C15.8311 14.4856 16.3127 14.1645 17.0236 13.8893C17.5511 13.6829 18.3308 13.4307 19.7985 13.3848C21.3809 13.316 21.8396 13.2931 25.83 13.2931ZM25.83 10.6099C21.7708 10.6099 21.2663 10.6328 19.6839 10.7016C18.1015 10.7704 17.0007 11.0227 16.0604 11.3896C15.0743 11.7795 14.2487 12.284 13.4231 13.1096C12.5975 13.9352 12.0929 14.7608 11.7031 15.7469C11.3361 16.6872 11.0839 17.788 11.0151 19.3704C10.9463 20.9528 10.9233 21.4802 10.9233 25.5165C10.9233 29.5757 10.9463 30.0802 11.0151 31.6626C11.0839 33.245 11.3361 34.3458 11.7031 35.2861C12.0929 36.2722 12.5975 37.0978 13.4231 37.9234C14.2487 38.749 15.0743 39.2536 16.0604 39.6434C17.0007 40.0104 18.1015 40.2626 19.6839 40.3314C21.2663 40.4002 21.7937 40.4232 25.83 40.4232C29.8892 40.4232 30.3937 40.4002 31.9761 40.3314C33.5585 40.2626 34.6593 40.0104 35.5996 39.6434C36.5857 39.2536 37.4113 38.749 38.2369 37.9234C39.0625 37.0978 39.567 36.2722 39.9569 35.2861C40.3238 34.3458 40.5761 33.245 40.6449 31.6626C40.7137 30.0802 40.7366 29.5528 40.7366 25.5165C40.7366 21.4802 40.7137 20.9528 40.6449 19.3704C40.5761 17.788 40.3238 16.6872 39.9569 15.7469C39.567 14.7608 39.0625 13.9352 38.2369 13.1096C37.4113 12.284 36.5857 11.7795 35.5996 11.3896C34.6593 11.0227 33.5585 10.7704 31.9761 10.7016C30.3937 10.6328 29.8892 10.6099 25.83 10.6099Z" fill="#2963AD"/>
<path d="M25.8301 17.8794C21.5875 17.8794 18.1704 21.3194 18.1704 25.5391C18.1704 29.7588 21.6104 33.1988 25.8301 33.1988C30.0728 33.1988 33.4899 29.7588 33.4899 25.5391C33.4899 21.3194 30.0728 17.8794 25.8301 17.8794ZM25.8301 30.5156C23.0781 30.5156 20.8536 28.2911 20.8536 25.5391C20.8536 22.7871 23.0781 20.5626 25.8301 20.5626C28.5821 20.5626 30.8067 22.7871 30.8067 25.5391C30.8067 28.2911 28.5821 30.5156 25.8301 30.5156Z" fill="#2963AD"/>
<path d="M33.7878 19.3476C34.7758 19.3476 35.5766 18.5467 35.5766 17.5588C35.5766 16.5709 34.7758 15.77 33.7878 15.77C32.7999 15.77 31.999 16.5709 31.999 17.5588C31.999 18.5467 32.7999 19.3476 33.7878 19.3476Z" fill="#2963AD"/>
</svg>

<svg width="51" height="51" fill="none" xmlns="http://www.w3.org/2000/svg"><path d="M25.83 13.293c3.99 0 4.45.023 6.032.092 1.444.069 2.247.298 2.774.504a4.762 4.762 0 0 1 1.72 1.124 4.574 4.574 0 0 1 1.124 1.72c.207.527.459 1.307.505 2.775.068 1.582.091 2.041.091 6.031 0 3.99-.023 4.45-.091 6.032-.07 1.445-.298 2.247-.505 2.775a4.762 4.762 0 0 1-1.124 1.72 4.575 4.575 0 0 1-1.72 1.124c-.527.206-1.307.458-2.775.504-1.582.069-2.04.092-6.031.092-3.99 0-4.45-.023-6.031-.092-1.445-.069-2.248-.298-2.775-.504a4.762 4.762 0 0 1-1.72-1.124 4.573 4.573 0 0 1-1.124-1.72c-.207-.528-.459-1.307-.505-2.775-.069-1.583-.091-2.041-.091-6.032 0-3.99.023-4.449.091-6.031.07-1.445.298-2.247.505-2.775a4.761 4.761 0 0 1 1.124-1.72 4.575 4.575 0 0 1 1.72-1.124c.527-.206 1.307-.458 2.774-.504 1.583-.069 2.042-.092 6.032-.092zm0-2.683c-4.06 0-4.564.023-6.146.092-1.582.068-2.683.32-3.624.688-.986.39-1.811.894-2.637 1.72-.825.825-1.33 1.65-1.72 2.637-.367.94-.62 2.041-.688 3.623-.069 1.583-.092 2.11-.092 6.146 0 4.06.023 4.564.092 6.147.069 1.582.321 2.683.688 3.623.39.986.895 1.812 1.72 2.637.826.826 1.651 1.33 2.637 1.72.94.367 2.042.62 3.624.688 1.582.07 2.11.092 6.146.092 4.06 0 4.564-.023 6.146-.092 1.583-.068 2.683-.32 3.624-.688.986-.39 1.811-.894 2.637-1.72.825-.825 1.33-1.65 1.72-2.637.367-.94.62-2.041.688-3.623.069-1.583.092-2.11.092-6.146 0-4.037-.023-4.564-.092-6.147-.069-1.582-.321-2.683-.688-3.623-.39-.986-.895-1.812-1.72-2.637-.826-.826-1.651-1.33-2.637-1.72-.94-.367-2.041-.62-3.624-.688-1.582-.07-2.087-.092-6.146-.092z" fill="#2963AD"/><path d="M25.83 17.88a7.659 7.659 0 0 0-7.66 7.66c0 4.219 3.44 7.659 7.66 7.659 4.243 0 7.66-3.44 7.66-7.66 0-4.22-3.417-7.66-7.66-7.66zm0 12.636a4.972 4.972 0 0 1-4.976-4.977 4.972 4.972 0 0 1 4.976-4.976 4.972 4.972 0 0 1 4.977 4.976 4.972 4.972 0 0 1-4.977 4.977zM33.788 19.348a1.789 1.789 0 1 0 0-3.578 1.789 1.789 0 0 0 0 3.578z" fill="#2963AD"/></svg>
